assets/create_wallet.svg

<svg fill="none" height="38" viewBox="0 0 24 24" width="38" xmlns="http://www.w3.org/2000/svg"><path clip-rule="evenodd" d="m12 22c5.5228 0 10-4.4772 10-10 0-5.52285-4.4772-10-10-10-5.52285 0-10 4.47715-10 10 0 5.5228 4.47715 10 10 10zm.75-13c0-.41421-.3358-.75-.75-.75s-.75.33579-.75.75v2.25h-2.25c-.41421 0-.75.3358-.75.75s.33579.75.75.75h2.25v2.25c0 .4142.3358.75.75.75s.75-.3358.75-.75v-2.25h2.25c.4142 0 .75-.3358.75-.75s-.3358-.75-.75-.75h-2.25z" fill="#00a1cc" fill-rule="evenodd"/></svg>

<?xml version="1.0" encoding="utf-8"?>
<svg width="38" height="38"  viewBox="0 0 24 24" fill="none" xmlns="http://www.w3.org/2000/svg">
<path fill-rule="evenodd" clip-rule="evenodd" d="M12 22C17.5228 22 22 17.5228 22 12C22 6.47715 17.5228 2 12 2C6.47715 2 2 6.47715 2 12C2 17.5228 6.47715 22 12 22ZM12.75 9C12.75 8.58579 12.4142 8.25 12 8.25C11.5858 8.25 11.25 8.58579 11.25 9L11.25 11.25H9C8.58579 11.25 8.25 11.5858 8.25 12C8.25 12.4142 8.58579 12.75 9 12.75H11.25V15C11.25 15.4142 11.5858 15.75 12 15.75C12.4142 15.75 12.75 15.4142 12.75 15L12.75 12.75H15C15.4142 12.75 15.75 12.4142 15.75 12C15.75 11.5858 15.4142 11.25 15 11.25H12.75V9Z" fill="#00A1CC"/>
</svg>
